branches/nugui/src/gui/icons/position_flipx.svg

<?xml version="1.0" encoding="UTF-8" standalone="no"?>
<!-- Created with Inkscape (http://www.inkscape.org/) -->

<svg
   xmlns:dc="http://purl.org/dc/elements/1.1/"
   xmlns:cc="http://creativecommons.org/ns#"
   xmlns:rdf="http://www.w3.org/1999/02/22-rdf-syntax-ns#"
   xmlns:svg="http://www.w3.org/2000/svg"
   xmlns="http://www.w3.org/2000/svg"
   xmlns:xlink="http://www.w3.org/1999/xlink"
   xmlns:inkscape="http://www.inkscape.org/namespaces/inkscape"
   version="1.0"
   width="100"
   height="100"
   id="svg2">
  <metadata
     id="metadata2566">
    <rdf:RDF>
      <cc:Work
         rdf:about="">
        <dc:format>image/svg+xml</dc:format>
        <dc:type
           rdf:resource="http://purl.org/dc/dcmitype/StillImage" />
      </cc:Work>
    </rdf:RDF>
  </metadata>
  <defs
     id="defs4">
    <linearGradient
       id="linearGradient3389">
      <stop
         id="stop3391"
         style="stop-color:#ffffff;stop-opacity:1"
         offset="0" />
      <stop
         id="stop3393"
         style="stop-color:#d1c89d;stop-opacity:0"
         offset="1" />
    </linearGradient>
    <linearGradient
       id="linearGradient3383">
      <stop
         id="stop3385"
         style="stop-color:#ffff06;stop-opacity:0"
         offset="0" />
      <stop
         id="stop3387"
         style="stop-color:#000000;stop-opacity:1"
         offset="1" />
    </linearGradient>
    <linearGradient
       id="linearGradient3384">
      <stop
         id="stop3386"
         style="stop-color:#008302;stop-opacity:0"
         offset="0" />
      <stop
         id="stop3388"
         style="stop-color:#000000;stop-opacity:1"
         offset="1" />
    </linearGradient>
    <linearGradient
       id="linearGradient3252">
      <stop
         id="stop3254"
         style="stop-color:#ffffff;stop-opacity:1"
         offset="0" />
      <stop
         id="stop3256"
         style="stop-color:#007f05;stop-opacity:0"
         offset="1" />
    </linearGradient>
    <radialGradient
       cx="58.01162"
       cy="63.345894"
       r="33.113495"
       fx="58.01162"
       fy="63.345894"
       id="radialGradient2333"
       xlink:href="#linearGradient3389"
       gradientUnits="userSpaceOnUse"
       gradientTransform="matrix(0.1887019,0,0,0.1887019,59.380008,7.8885765)" />
    <linearGradient
       x1="25.398125"
       y1="63.345894"
       x2="90.625114"
       y2="63.345894"
       id="linearGradient2336"
       xlink:href="#linearGradient3383"
       gradientUnits="userSpaceOnUse"
       gradientTransform="matrix(0.2377304,0.2377304,-0.2377304,0.2377304,75.66753,-4.8518641)" />
    <radialGradient
       cx="58.01162"
       cy="63.345894"
       r="33.113495"
       fx="58.01162"
       fy="63.345894"
       id="radialGradient2374"
       xlink:href="#linearGradient3252"
       gradientUnits="userSpaceOnUse"
       gradientTransform="matrix(0.1887019,0,0,0.1887019,8.580432,7.8885765)" />
    <linearGradient
       x1="25.398125"
       y1="63.345894"
       x2="90.625114"
       y2="63.345894"
       id="linearGradient2377"
       xlink:href="#linearGradient3384"
       gradientUnits="userSpaceOnUse"
       gradientTransform="matrix(0.2377304,0.2377304,-0.2377304,0.2377304,24.867954,-4.8518641)" />
  </defs>
  <g
     id="g2487">
    <path
       d="m 93.798886,32.620885 c 0.0011,6.056392 -4.90832,10.96663 -10.96471,10.96663 -6.05639,0 -10.96577,-4.910238 -10.96471,-10.96663 -0.0011,-6.056392 4.90832,-10.96663 10.96471,-10.96663 6.05639,0 10.96577,4.910238 10.96471,10.96663 l 0,0 z"
       inkscape:connector-curvature="0"
       id="path2451"
       style="fill:#dcdee3;fill-opacity:1;fill-rule:evenodd;stroke:none" />
    <path
       d="m 85.250426,24.039257 c 0.0011,6.056392 -4.908318,10.96663 -10.96471,10.96663 -6.056392,0 -10.96577,-4.910238 -10.96471,-10.96663 -0.0011,-6.056392 4.908318,-10.96663 10.96471,-10.96663 6.056392,0 10.96577,4.910238 10.96471,10.96663 l 0,0 z"
       inkscape:connector-curvature="0"
       id="path2258"
       style="fill:#c7cfcc;fill-opacity:0.78089887;fill-rule:evenodd;stroke:#000000;stroke-width:0.33620161px;stroke-linecap:butt;stroke-linejoin:miter;stroke-opacity:1" />
    <path
       d="m 82.152631,31.751731 c -4.281766,4.283265 -11.225283,4.283873 -15.507798,0.0014 -4.282517,-4.282516 -4.281908,-11.226033 0.0014,-15.507798 4.281766,-4.283266 11.225283,-4.283874 15.507799,-0.0014 4.282515,4.282516 4.281907,11.226033 -0.0014,15.507799 l 0,0 z"
       inkscape:connector-curvature="0"
       id="path2260"
       style="opacity:0.71739131;fill:url(#linearGradient2336);fill-opacity:1;fill-rule:evenodd;stroke:none" />
    <path
       d="m 76.481136,19.842065 c 5.95e-4,3.399306 -2.75492,6.155305 -6.154227,6.155305 -3.399307,0 -6.154822,-2.755999 -6.154227,-6.155305 -5.95e-4,-3.399307 2.75492,-6.155305 6.154227,-6.155305 3.399307,0 6.154822,2.755998 6.154227,6.155305 l 0,0 z"
       inkscape:connector-curvature="0"
       id="path2262"
       style="fill:url(#radialGradient2333);fill-opacity:1;fill-rule:evenodd;stroke:none" />
  </g>
  <use
     transform="translate(0,45.369392)"
     id="use2493"
     x="0"
     y="0"
     width="100"
     height="100"
     xlink:href="#g2487" />
  <g
     id="g2478">
    <path
       d="m 42.999306,32.620885 c 0.0011,6.056392 -4.90832,10.96663 -10.96471,10.96663 -6.05639,0 -10.96577,-4.910238 -10.96471,-10.96663 -0.0011,-6.056392 4.90832,-10.96663 10.96471,-10.96663 6.05639,0 10.96577,4.910238 10.96471,10.96663 l 0,0 z"
       inkscape:connector-curvature="0"
       id="path2461"
       style="fill:#e4e6e1;fill-opacity:1;fill-rule:evenodd;stroke:none" />
    <g
       id="g3349">
      <path
         d="m 34.45085,24.039257 c 0.0011,6.056392 -4.908318,10.96663 -10.96471,10.96663 -6.056392,0 -10.96577,-4.910238 -10.96471,-10.96663 -0.0011,-6.056392 4.908318,-10.96663 10.96471,-10.96663 6.056392,0 10.96577,4.910238 10.96471,10.96663 l 0,0 z"
         inkscape:connector-curvature="0"
         id="path3474"
         style="fill:#00ab00;fill-opacity:1;fill-rule:evenodd;stroke:#000000;stroke-width:0.33620161px;stroke-linecap:butt;stroke-linejoin:miter;stroke-opacity:1" />
      <path
         d="m 31.353055,31.751731 c -4.281766,4.283265 -11.225283,4.283873 -15.507798,0.0014 -4.282517,-4.282516 -4.281908,-11.226033 0.0014,-15.507798 4.281766,-4.283266 11.225283,-4.283874 15.507799,-0.0014 4.282515,4.282516 4.281907,11.226033 -0.0014,15.507799 l 0,0 z"
         inkscape:connector-curvature="0"
         id="path3476"
         style="opacity:0.71739131;fill:url(#linearGradient2377);fill-opacity:1;fill-rule:evenodd;stroke:none" />
      <path
         d="m 25.68156,19.842065 c 5.95e-4,3.399306 -2.75492,6.155305 -6.154227,6.155305 -3.399307,0 -6.154822,-2.755999 -6.154227,-6.155305 -5.95e-4,-3.399307 2.75492,-6.155305 6.154227,-6.155305 3.399307,0 6.154822,2.755998 6.154227,6.155305 l 0,0 z"
         inkscape:connector-curvature="0"
         id="path3478"
         style="fill:url(#radialGradient2374);fill-opacity:1;fill-rule:evenodd;stroke:none" />
    </g>
  </g>
  <use
     transform="translate(0,45.312557)"
     id="use2485"
     x="0"
     y="0"
     width="100"
     height="100"
     xlink:href="#g2478" />
  <path
     d="m 57.434386,98.042375 0,-85.555404"
     inkscape:connector-curvature="0"
     id="path2475"
     style="opacity:0.64130435;fill:none;stroke:#e0e1e0;stroke-width:3;stroke-linecap:round;stroke-linejoin:round;stroke-miterlimit:4;stroke-opacity:1;stroke-dasharray:6, 3;stroke-dashoffset:0" />
  <path
     d="m 48.885925,89.460748 0,-85.5554052"
     inkscape:connector-curvature="0"
     id="path3261"
     style="opacity:0.64130435;fill:none;stroke:#000000;stroke-width:3;stroke-linecap:round;stroke-linejoin:round;stroke-miterlimit:4;stroke-opacity:1;stroke-dasharray:6, 3;stroke-dashoffset:0" />
</svg>

<?xml version="1.0" encoding="UTF-8" standalone="no"?>
<!-- Created with Inkscape (http://www.inkscape.org/) -->
<svg
   xmlns:svg="http://www.w3.org/2000/svg"
   xmlns="http://www.w3.org/2000/svg"
   xmlns:xlink="http://www.w3.org/1999/xlink"
   version="1.0"
   width="100"
   height="100"
   id="svg2">
  <defs
     id="defs4">
    <linearGradient
       id="linearGradient3389">
      <stop
         id="stop3391"
         style="stop-color:#ffffff;stop-opacity:1"
         offset="0" />
      <stop
         id="stop3393"
         style="stop-color:#d1c89d;stop-opacity:0"
         offset="1" />
    </linearGradient>
    <linearGradient
       id="linearGradient3383">
      <stop
         id="stop3385"
         style="stop-color:#ffff06;stop-opacity:0"
         offset="0" />
      <stop
         id="stop3387"
         style="stop-color:#000000;stop-opacity:1"
         offset="1" />
    </linearGradient>
    <linearGradient
       id="linearGradient3384">
      <stop
         id="stop3386"
         style="stop-color:#008302;stop-opacity:0"
         offset="0" />
      <stop
         id="stop3388"
         style="stop-color:#000000;stop-opacity:1"
         offset="1" />
    </linearGradient>
    <linearGradient
       id="linearGradient3252">
      <stop
         id="stop3254"
         style="stop-color:#ffffff;stop-opacity:1"
         offset="0" />
      <stop
         id="stop3256"
         style="stop-color:#007f05;stop-opacity:0"
         offset="1" />
    </linearGradient>
    <radialGradient
       cx="58.01162"
       cy="63.345894"
       r="33.113495"
       fx="58.01162"
       fy="63.345894"
       id="radialGradient2333"
       xlink:href="#linearGradient3389"
       gradientUnits="userSpaceOnUse"
       gradientTransform="matrix(0.1887019,0,0,0.1887019,59.380008,7.8885765)" />
    <linearGradient
       x1="25.398125"
       y1="63.345894"
       x2="90.625114"
       y2="63.345894"
       id="linearGradient2336"
       xlink:href="#linearGradient3383"
       gradientUnits="userSpaceOnUse"
       gradientTransform="matrix(0.2377304,0.2377304,-0.2377304,0.2377304,75.66753,-4.8518641)" />
    <radialGradient
       cx="58.01162"
       cy="63.345894"
       r="33.113495"
       fx="58.01162"
       fy="63.345894"
       id="radialGradient2374"
       xlink:href="#linearGradient3252"
       gradientUnits="userSpaceOnUse"
       gradientTransform="matrix(0.1887019,0,0,0.1887019,8.580432,7.8885765)" />
    <linearGradient
       x1="25.398125"
       y1="63.345894"
       x2="90.625114"
       y2="63.345894"
       id="linearGradient2377"
       xlink:href="#linearGradient3384"
       gradientUnits="userSpaceOnUse"
       gradientTransform="matrix(0.2377304,0.2377304,-0.2377304,0.2377304,24.867954,-4.8518641)" />
  </defs>
  <g
     id="g2487">
    <path
       d="M 93.798886,32.620885 C 93.799986,38.677277 88.890566,43.587515 82.834176,43.587515 C 76.777786,43.587515 71.868406,38.677277 71.869466,32.620885 C 71.868366,26.564493 76.777786,21.654255 82.834176,21.654255 C 88.890566,21.654255 93.799946,26.564493 93.798886,32.620885 L 93.798886,32.620885 z"
       id="path2451"
       style="fill:#dcdee3;fill-opacity:1;fill-rule:evenodd;stroke:none" />
    <path
       d="M 85.250426,24.039257 C 85.251526,30.095649 80.342108,35.005887 74.285716,35.005887 C 68.229324,35.005887 63.319946,30.095649 63.321006,24.039257 C 63.319906,17.982865 68.229324,13.072627 74.285716,13.072627 C 80.342108,13.072627 85.251486,17.982865 85.250426,24.039257 L 85.250426,24.039257 L 85.250426,24.039257 z"
       id="path2258"
       style="fill:#c7cfcc;fill-opacity:0.78089887;fill-rule:evenodd;stroke:#000000;stroke-width:0.33620161px;stroke-linecap:butt;stroke-linejoin:miter;stroke-opacity:1" />
    <path
       d="M 82.152631,31.751731 C 77.870865,36.034996 70.927348,36.035604 66.644833,31.753131 C 62.362316,27.470615 62.362925,20.527098 66.646233,16.245333 C 70.927999,11.962067 77.871516,11.961459 82.154032,16.243933 C 86.436547,20.526449 86.435939,27.469966 82.152632,31.751732 L 82.152632,31.751732 L 82.152631,31.751731 z"
       id="path2260"
       style="opacity:0.71739131;fill:url(#linearGradient2336);fill-opacity:1;fill-rule:evenodd;stroke:none" />
    <path
       d="M 76.481136,19.842065 C 76.481731,23.241371 73.726216,25.99737 70.326909,25.99737 C 66.927602,25.99737 64.172087,23.241371 64.172682,19.842065 C 64.172087,16.442758 66.927602,13.68676 70.326909,13.68676 C 73.726216,13.68676 76.481731,16.442758 76.481136,19.842065 L 76.481136,19.842065 z"
       id="path2262"
       style="fill:url(#radialGradient2333);fill-opacity:1;fill-rule:evenodd;stroke:none" />
  </g>
  <use
     transform="translate(0,45.369392)"
     id="use2493"
     x="0"
     y="0"
     width="100"
     height="100"
     xlink:href="#g2487" />
  <g
     id="g2478">
    <path
       d="M 42.999306,32.620885 C 43.000406,38.677277 38.090986,43.587515 32.034596,43.587515 C 25.978206,43.587515 21.068826,38.677277 21.069886,32.620885 C 21.068786,26.564493 25.978206,21.654255 32.034596,21.654255 C 38.090986,21.654255 43.000366,26.564493 42.999306,32.620885 L 42.999306,32.620885 z"
       id="path2461"
       style="fill:#e4e6e1;fill-opacity:1;fill-rule:evenodd;stroke:none" />
    <g
       id="g3349">
      <path
         d="M 34.45085,24.039257 C 34.45195,30.095649 29.542532,35.005887 23.48614,35.005887 C 17.429748,35.005887 12.52037,30.095649 12.52143,24.039257 C 12.52033,17.982865 17.429748,13.072627 23.48614,13.072627 C 29.542532,13.072627 34.45191,17.982865 34.45085,24.039257 L 34.45085,24.039257 L 34.45085,24.039257 z"
         id="path3474"
         style="fill:#00ab00;fill-opacity:1;fill-rule:evenodd;stroke:#000000;stroke-width:0.33620161px;stroke-linecap:butt;stroke-linejoin:miter;stroke-opacity:1" />
      <path
         d="M 31.353055,31.751731 C 27.071289,36.034996 20.127772,36.035604 15.845257,31.753131 C 11.56274,27.470615 11.563349,20.527098 15.846657,16.245333 C 20.128423,11.962067 27.07194,11.961459 31.354456,16.243933 C 35.636971,20.526449 35.636363,27.469966 31.353056,31.751732 L 31.353056,31.751732 L 31.353055,31.751731 z"
         id="path3476"
         style="opacity:0.71739131;fill:url(#linearGradient2377);fill-opacity:1;fill-rule:evenodd;stroke:none" />
      <path
         d="M 25.68156,19.842065 C 25.682155,23.241371 22.92664,25.99737 19.527333,25.99737 C 16.128026,25.99737 13.372511,23.241371 13.373106,19.842065 C 13.372511,16.442758 16.128026,13.68676 19.527333,13.68676 C 22.92664,13.68676 25.682155,16.442758 25.68156,19.842065 L 25.68156,19.842065 z"
         id="path3478"
         style="fill:url(#radialGradient2374);fill-opacity:1;fill-rule:evenodd;stroke:none" />
    </g>
  </g>
  <use
     transform="translate(0,45.312557)"
     id="use2485"
     x="0"
     y="0"
     width="100"
     height="100"
     xlink:href="#g2478" />
  <path
     d="M 57.434386,98.042375 L 57.434386,12.486971"
     id="path2475"
     style="opacity:0.64130435;fill:none;stroke:#e0e1e0;stroke-width:3;stroke-linecap:round;stroke-linejoin:round;stroke-miterlimit:4;stroke-dasharray:6, 3;stroke-dashoffset:0;stroke-opacity:1" />
  <path
     d="M 48.885925,89.460748 L 48.885925,3.9053428"
     id="path3261"
     style="opacity:0.64130435;fill:none;stroke:#000000;stroke-width:3;stroke-linecap:round;stroke-linejoin:round;stroke-miterlimit:4;stroke-dasharray:6, 3;stroke-dashoffset:0;stroke-opacity:1" />
</svg>
